!!!OTL: Xingfugeer changbuwan
!!!ARE: Asia, China,ÿGuangdong Wenchang
!! II, 356
!!!SCT: C1887
!!!YEM: Copyright 1995, estate of Helmut Schaffrath.
**kern
*ICvox
*Ivox
*M3/4
*k[f#]
*G:
{4b
4.a
8b
=1
4dd
2a
=2
4dd
4ee
[4dd
=3
2dd]
8b
8r}
=4
{4dd
4b
4dd
=5
4g
2a
=6
4b
4dd
[4a
=7
4a]
2r}
=8
{4ee
4.dd
8ee
=9
4b
4.dd
8ee
=10
4dd
4b
[4ee
=11
2ee]
4dd}
=12
{4dd
4b
4dd
=13
4g
2a
=14
8b
8a
4g
[4a
=15
2a]
4r}
=16
{4dd
2ee
=17
4b
2dd
=18
4dd
4ee
[4dd
=19
2dd]}
{4cc
=20
4.b
8dd
4g
=21
[2b
8b]
8cc
=22
4b
8a
8b
[4a
=23
2a]
4r}
=24
{4dd
2ee
=25
4b
2dd
=26
4dd
4b
[4ee
=27
2ee]
4dd}
=28
{4b
2dd
=29
4g
4.b
8cc
=30
8b
8a
4g
[4a
=31
2.a]}
==
!!!AGN: Shange
!!!AMT: simple triple
!!!AIN: vox
!!!EED: Helmut Schaffrath
!!!EEV: 1.0
*-
!!!ONB: Tied note syntax fixed by Craig Sapp, 2004/05/03/
